!!!!SEGMENT: pl-kk--kk-i-7--054-003_certon-pierre--missa-de-sanctis-confessoribus-sanctus.krn
!!!cenid: 16xx:881
!!!COM: Certon, Pierre
!!!COM-rismid: pe30006023
!!!CDT: ~1510-1572/02/23
!!!CNT: French
!!!OPR: Missa de Sanctis Confessoribus
!!!OTL: Sanctus
!!!OMV: 003
!!!PDT:
!!!AGN: Sacred; Mass
!!!SMS-siglum: PL-Kk
!!!SMS-shelfmark: Kk.I.7
!!!SMS-shelfwork: 054-003 M
!!!SMS-variant:
!!!SMS-altvar:
!!!NIFC-rismid: 300258131
!!!URL-scan: http://repozytorium.nifc.pl/skany/pl-kk-nut--i-7
!!!ONB-nifc: UWAGA: C (skan 0051-0052, s.95-97), A (0135-0136, s.91-93), T(0211-0212. s.85-87), B(0299-0300, s.85-86). Części Mszy: 1. Kyrie, 2. Et in terra, 3. Sanctus, 4. Agnus Dei. "Agnus II" rozpisany na 5 głosów. Głos dodatkowy zapisany w księdze A na stronie 93
**kern	**text	**kern	**text	**kern	**text	**kern	**text
*part4	*part4	*part3	*part3	*part2	*part2	*part1	*part1
*staff4	*staff4	*staff3	*staff3	*staff2	*staff2	*staff1	*staff1
*I"BASSUS.	*	*I"TENOR.	*	*I"ALTVS.	*	*I"CANTVS.	*
*I'B	*	*I'T	*	*I'A	*	*I'S	*
*clefF4	*	*clefC4	*	*clefC3	*	*clefC1	*
*k[b-]	*	*k[b-]	*	*k[b-]	*	*k[b-]	*
*g:	*	*g:	*	*g:	*	*g:	*
*M2/1	*	*M2/1	*	*M2/1	*	*M2/1	*
=1-	=1-	=1-	=1-	=1-	=1-	=1-	=1-
!	!	!LO:TX:t=P:problem:kreska pseudotaktowa	!	!	!	!	!
00r	.	0r	.	2.G/	San-	1r	.
.	.	.	.	4A/	.	.	.
.	.	.	.	4B-/	.	00dd\	San-
.	.	.	.	4c/	.	.	.
*	*	*	*	*2\right	*	*	*
.	.	.	.	2d\	.	.	.
=2-	=2-	=2-	=2-	=2-	=2-	=2-	=2-
.	.	2.G/	San-	2G,/	-ctus	.	.
.	.	.	.	1g\	San-	.	.
.	.	4A/	.	.	.	.	.
.	.	4B-\	.	.	.	.	.
.	.	4c\	.	.	.	.	.
*	*	*2\right	*	*	*	*	*
!	!	!	!	!LO:TX:t=P:problem:kreska pseudotaktowa	!	!	!
.	.	2d\	.	2f\	.	.	.
=3-	=3-	=3-	=3-	=3-	=3-	=3-	=3-
00r	.	2G/	.	2.g\	.	.	.
!	!	!LO:TX:t=P:problem:kreska pseudotaktowa	!	!	!	!	!
.	.	2B-\	.	.	.	.	.
.	.	.	.	4d\	.	.	.
.	.	1A\	-ctus	2e\	.	1cc\	ctus
.	.	.	.	2f\	.	.	.
=4-	=4-	=4-	=4-	=4-	=4-	=4-	=4-
*	*	*	*	*	*	*	*ij
.	.	2.G/	San-	2g\	.	0b-\	San-
.	.	.	.	2.G/	.	.	.
.	.	4A/	.	.	.	.	.
.	.	4B-\	.	.	.	.	.
.	.	4c\	.	4A/	.	.	.
.	.	2d\	.	4B-/	.	.	.
!	!	!	!	!LO:TX:t=P:problem:kreska pseudotaktowa	!	!	!
.	.	.	.	4c/	.	.	.
=5-	=5-	=5-	=5-	=5-	=5-	=5-	=5-
*2\right	*	*	*	*	*	*	*
!	!	!	!	!	!	!LO:TX:t=P:problem:kreska pseudotaktowa	!
2.D\	San-	2A\	.	4d\	.	1a\	.
.	.	.	.	4e\	.	.	.
.	.	1d\	.	1f\	.	.	.
4E\	.	.	.	.	.	.	.
*	*	*	*	*	*	*2\right	*
4F\	.	.	.	.	.	2a\	-ctus
4G\	.	.	.	.	.	.	.
*	*	*	*	*	*	*lig	*Xij
!	!	!LO:TX:t=P:problem:kreska pseudotaktowa	!	!	!	!	!
2A\	.	2c\	.	2e\	.	1a\	San-
=6-	=6-	=6-	=6-	=6-	=6-	=6-	=6-
*	*	*lig	*	*	*	*	*
2D\	.	1d\	.	2f\	.	.	.
1G\	.	.	.	2d\	.	1b-\	.
.	.	1c\	.	2e\	.	.	.
*	*	*Xlig	*	*	*	*Xlig	*
2F\	.	.	.	2f\	.	1a\	.
=7-	=7-	=7-	=7-	=7-	=7-	=7-	=7-
!	!	!	!	!LO:TX:t=P:problem:kreska pseudotaktowa	!	!	!
0G\	.	0B-\	.	1d\	.	.	.
.	.	.	.	.	.	4g/	.
!	!	!	!	!	!	!LO:SIC:v:s=4f#	!
.	.	.	.	.	.	4f/	.
.	.	.	.	1.d\	.	1g\	.
=8-	=8-	=8-	=8-	=8-	=8-	=8-	=8-
!LO:TX:t=P:problem:kreska pseudotaktowa	!	!LO:TX:t=P:problem:kreska pseudotaktowa	!	!	!	!LO:TX:t=P:problem:kreska pseudotaktowa	!
1D\	-ctus	0A\	-ctus	.	.	00a\	-ct(us)
.	.	.	.	2d\	.	.	.
2r	.	.	.	4c/	.	.	.
.	.	.	.	4B-/	.	.	.
2.D/	Do-	.	.	4A/	.	.	.
.	.	.	.	4G/	.	.	.
=9-	=9-	=9-	=9-	=9-	=9-	=9-	=9-
!	!	!	!	!LO:TX:t=P:problem:kreska pseudotaktowa	!	!	!
.	.	2r	.	1F/	-ctus	.	.
4D/	-mi-	.	.	.	.	.	.
!LO:TX:t=P:problem:kreska pseudotaktowa	!	!	!	!	!	!	!
2D/	-n(us)	2.A/	Do-	.	.	.	.
1C/	De-	.	.	00r	.	.	.
.	.	4A/	-mi-	.	.	.	.
.	.	2A/	-n(us)	.	.	.	.
=10-	=10-	=10-	=10-	=10-	=10-	=10-	=10-
2BB-/	.	1G/	.	.	.	0r	.
4GG/	-us	.	.	.	.	.	.
4AA/	.	.	.	.	.	.	.
4BB-/	Sab-	2.F/	DE-	.	.	.	.
4C/	.	.	.	.	.	.	.
4D/	.	.	.	.	.	.	.
!LO:TX:t=P:problem:kreska pseudotaktowa	!	!	!	!	!	!	!
4E/	.	4G/	.	.	.	.	.
=11-	=11-	=11-	=11-	=11-	=11-	=11-	=11-
2F\	.	2A\	-us	.	.	2r	.
2G\	.	1B-\	Sab-	.	.	2.dd\	Do-
!	!	!	!	!LO:TX:t=P:problem:kreska pseudotaktowa	!	!	!
2D\	.	.	.	0r	.	.	.
.	.	.	.	.	.	4dd\	-mi-
1G\	.	4A/	.	.	.	2dd\	-n(us)
.	.	4G/	.	.	.	.	.
=12-	=12-	=12-	=12-	=12-	=12-	=12-	=12-
.	.	1A\	-ba-	.	.	1cc\	.
2F\	-ba-	.	.	.	.	.	.
!LO:TX:t=P:problem:kreska pseudotaktowa	!	!LO:TX:t=P:problem:kreska pseudotaktowa	!	!	!	!	!
1G\	-oth	1G/	-oth	2r	.	2.b-\	DE-
.	.	.	.	2.d\	Do-	.	.
.	.	.	.	.	.	8a\L	.
.	.	.	.	.	.	8g\J	.
=13-	=13-	=13-	=13-	=13-	=13-	=13-	=13-
00r	.	0r	.	.	.	2b-\	.
.	.	.	.	4d\	-mi-	.	.
!	!	!	!	!LO:TX:t=P:problem:kreska pseudotaktowa	!	!	!
!	!	!	!	!LO:SIC:o:v=wykreślony takt	!	!	!
.	.	.	.	2d\	-n(us)	2.a\	.
.	.	.	.	1c\	De-	.	.
.	.	.	.	.	.	4g/	.
.	.	.	.	.	.	4f/	.
.	.	.	.	.	.	4e/	.
=14-	=14-	=14-	=14-	=14-	=14-	=14-	=14-
!	!	!	!	!LO:TX:t=P:problem:kreska pseudotaktowa	!	!	!
.	.	2r	.	1B-/	-us	2d/	us
.	.	2.d\	Do-	.	.	2.b-\	Sab-
!	!	!	!	!LO:LB:g=original	!	!	!
.	.	.	.	2G/	Sab-	.	.
.	.	4d\	-mi-	.	.	4a/	.
.	.	2d\	-n(us)	2B-/	.	1g\	.
=15-	=15-	=15-	=15-	=15-	=15-	=15-	=15-
!LO:TX:t=P:problem:kreska pseudotaktowa	!	!	!	!	!	!	!
1r	.	1c\	DE-	1A/	-ba-	.	.
.	.	.	.	.	.	2f#X/	-ba-
!	!	!LO:TX:t=P:problem:kreska pseudotaktowa	!	!LO:TX:t=P:problem:kreska pseudotaktowa	!	!LO:TX:t=P:problem:kreska pseudotaktowa	!
2r	.	1B-\	-(us)	1G/	-oth	0g\	-oth.
*	*ij	*	*	*	*	*	*
2.G\	Do-	.	.	.	.	.	.
=16-	=16-	=16-	=16-	=16-	=16-	=16-	=16-
.	.	2G/	Sab-	2r	.	.	.
4G\	-mi-	.	.	.	.	.	.
2G\	-nus	2B-\	.	2.d\	Do-	.	.
2F\	De-	1.A\	.	.	.	2r	.
.	.	.	.	4d\	-mi-	.	.
*	*	*	*	*	*	*	*ij
2D\	-us	.	.	2d\	-n(us)	2.a\	Do-
=17-	=17-	=17-	=17-	=17-	=17-	=17-	=17-
1F\	Sab-	.	.	2c/	DE-	.	.
.	.	.	.	.	.	4a\	-mi-
.	.	2F/	-ba-	2A/	.	2a\	-n(us)
1E\	-ba-	1G/	.	2B-/	-(us)	1g\	DE-
!	!	!	!	!LO:TX:t=P:problem:kreska pseudotaktowa	!	!	!
.	.	.	.	2c/	.	.	.
=18-	=18-	=18-	=18-	=18-	=18-	=18-	=18-
!LO:TX:t=P:problem:kreska pseudotaktowa	!	!	!	!	!	!	!
0D\	-oth	0.A\	-oth	2d\	Sab-	1f/	-us
.	.	.	.	2.f\	.	.	.
.	.	.	.	.	.	2d/	Sab-
.	.	.	.	4e\	.	.	.
.	.	.	.	1d\	.	2f/	.
=19-	=19-	=19-	=19-	=19-	=19-	=19-	=19-
1r	.	.	.	.	.	1e/	-ba-
.	.	.	.	2c\	.	.	.
!	!	!LO:PB:g=original	!	!	!	!	!
!	!	!	!	!	!	!LO:TX:t=P:problem:kreska pseudotaktowa	!
2r	.	1r	.	4d\	.	0d/	-oth.
.	.	.	.	4c/	.	.	.
*	*Xij	*	*	*	*	*	*
2.G\	Do-	.	.	4B-/	.	.	.
.	.	.	.	4A/	.	.	.
=20-	=20-	=20-	=20-	=20-	=20-	=20-	=20-
.	.	2r	.	2.B-/	.	.	.
4G\	-mi-	.	.	.	.	.	.
!LO:TX:t=P:problem:kreska pseudotaktowa	!	!	!	!	!	!	!
!LO:SIC:v:t=custos F	!	!	!	!	!	!	!
*	*	*	*ij	*	*	*	*
2G\	-n(us)	2.d\	Do-	.	.	.	.
.	.	.	.	4B-/	ba-	.	.
!	!	!	!	!	!	!LO:LB:g=original	!
!	!	!	!	!LO:TX:t=P:problem:kreska pseudotaktowa	!	!	!
2F\	De-	.	.	0A/	-oth.	2r	.
.	.	4d\	-mi-	.	.	.	.
*	*	*	*	*	*	*	*Xij
!	!	!LO:TX:t=P:problem:kreska pseudotaktowa	!	!	!	!	!
2D\	-us	2d\	-nus	.	.	2.a\	Do-
=21-	=21-	=21-	=21-	=21-	=21-	=21-	=21-
1F\	Sab-	2c\	De-	.	.	.	.
.	.	.	.	.	.	4a\	-mi-
!	!	!	!	!	!	!LO:TX:t=P:problem:kreska pseudotaktowa	!
.	.	2A\	-us	.	.	2a\	-n(us)
1E\	.	2B-\	Sab-	1r	.	2g/	DE-
.	.	2c\	.	.	.	2e/	.
=22-	=22-	=22-	=22-	=22-	=22-	=22-	=22-
1.D\	.	2d\	.	2r	.	1.f/	-us
*	*	*	*	*	*ij	*	*
.	.	2B-\	.	2.d\	Do-	.	.
.	.	4A/	.	.	.	.	.
.	.	4G/	.	4d\	-mi-	.	.
!	!	!	!	!LO:TX:t=P:problem:kreska pseudotaktowa	!	!	!
2BB-/	.	1G/	.	2d\	-nus	2g/	Sab-
=23-	=23-	=23-	=23-	=23-	=23-	=23-	=23-
1AA/	.	.	.	2c/	De-	1a\	-ba-
.	.	2F/	-ba-	2A/	.	.	.
!	!	!LO:TX:t=P:problem:kreska pseudotaktowa	!	!	!	!LO:TX:t=P:problem:kreska pseudotaktowa	!
2GG/	.	1G/	-oth	0B-/	-us	1d/	.
2.G\	.	.	.	.	.	.	.
=24-	=24-	=24-	=24-	=24-	=24-	=24-	=24-
.	.	1r	.	.	.	0g\	-oth
4F\	.	.	.	.	.	.	.
4E\	.	.	.	.	.	.	.
!LO:TX:t=P:problem:kreska pseudotaktowa	!	!	!	!	!	!	!
4D\	.	.	.	.	.	.	.
*	*	*	*Xij	*	*	*	*
1E\	.	1G/	Sab-	2.c\	Sab-	.	.
!	!	!	!	!LO:TX:t=P:problem:kreska pseudotaktowa	!	!	!
.	.	.	.	4c\	-ba-	.	.
=25-	=25-	=25-	=25-	=25-	=25-	=25-	=25-
0D\	.	1.A\	.	00.d\;	-oth.	2f/	Sab-
.	.	.	.	.	.	4d/	.
.	.	.	.	.	.	4e/	.
.	.	.	.	.	.	4f/	.
.	.	.	.	.	.	4g/	.
.	.	2F/	.	.	.	1a\	.
=26-	=26-	=26-	=26-	=26-	=26-	=26-	=26-
2BB-/	.	1B-\	.	.	.	.	.
2GG/	.	.	.	.	.	1g\	.
1D\	-ba-	1A\	-ba-	.	.	.	.
.	.	.	.	.	.	2f#X/	-ba-
=27-	=27-	=27-	=27-	=27-	=27-	=27-	=27-
0GG/;	-oth.	0Bn\;	-oth.	.	.	0g\;	-oth.
*	*	*	*	*	*Xij	*	*
=28||-	=28||-	=28||-	=28||-	=28||-	=28||-	=28||-	=28||-
*M2/1	*	*	*	*	*	*	*
!	!	!LO:TX:t=P:problem:kreska pseudotaktowa	!	!	!	!	!
!	!	!LO:TX:a:t=à2.	!	!LO:TX:a:t=Pleni sunt Tacet	!	!LO:TX:a:t=Pleni sunt\nTacet.	!
1GG/	Ple-	1r	.	0ryy	.	0ryy	.
2.BB-/	-ni	1D/	Ple-	.	.	.	.
4C/	.	.	.	.	.	.	.
=29-	=29-	=29-	=29-	=29-	=29-	=29-	=29-
2D\	sunt	2.F/	-ni	0ryy	.	0ryy	.
2E\	.	.	.	.	.	.	.
.	.	4G/	.	.	.	.	.
2F\	cae-	2A\	sunt	.	.	.	.
2G\	.	1B-\	.	.	.	.	.
=30-	=30-	=30-	=30-	=30-	=30-	=30-	=30-
!LO:TX:t=P:problem:kreska pseudotaktowa	!	!	!	!	!	!	!
1E\	.	.	.	0ryy	.	0ryy	.
.	.	4A/	.	.	.	.	.
!	!	!LO:TX:t=P:problem:kreska pseudotaktowa	!	!	!	!	!
.	.	4G/	.	.	.	.	.
2D\	.	1B-\	cae-	.	.	.	.
1G\	.	.	.	.	.	.	.
=31-	=31-	=31-	=31-	=31-	=31-	=31-	=31-
.	.	1A\,	-li	0ryy	.	0ryy	.
2F\	.	.	.	.	.	.	.
2G\	-li	2.G/	et	.	.	.	.
4GG/	et	.	.	.	.	.	.
4AA/	.	4F/	.	.	.	.	.
=32-	=32-	=32-	=32-	=32-	=32-	=32-	=32-
4BB-/	ter-	4D/	ter-	0ryy	.	0ryy	.
4C/	.	4E/	.	.	.	.	.
4D/	.	4F/	.	.	.	.	.
!LO:TX:t=P:problem:kreska pseudotaktowa	!	!	!	!	!	!	!
4E/	.	4G/	.	.	.	.	.
4F\	.	4A\	.	.	.	.	.
4D\	.	4B-\	.	.	.	.	.
2E\	.	4c\	.	.	.	.	.
!	!	!LO:TX:t=P:problem:kreska pseudotaktowa	!	!	!	!	!
.	.	4A\	.	.	.	.	.
=33-	=33-	=33-	=33-	=33-	=33-	=33-	=33-
1D\	.	2B-\	.	0ryy	.	0ryy	.
.	.	1A\	.	.	.	.	.
2C/	.	.	.	.	.	.	.
2BB-/	.	1G/	.	.	.	.	.
=34-	=34-	=34-	=34-	=34-	=34-	=34-	=34-
1AA/	.	.	.	0ryy	.	0ryy	.
!	!	!LO:TX:t=P:problem:kreska pseudotaktowa	!	!	!	!	!
!	!	!LO:SIC:v:t=2F#:t=?	!	!	!	!	!
.	.	2F/	.	.	.	.	.
!LO:TX:t=P:problem:kreska pseudotaktowa	!	!	!	!	!	!	!
!LO:SIC:v:t=custos G	!	!LO:TX:t=P:problem:kreska pseudotaktowa	!	!	!	!	!
1GG/	-ra	0G/	-ra	.	.	.	.
!LO:LB:g=original	!	!	!	!	!	!	!
=35-	=35-	=35-	=35-	=35-	=35-	=35-	=35-
2r	.	.	.	0ryy	.	0ryy	.
1G\	glo-	.	.	.	.	.	.
!	!	!LO:LB:g=original	!	!	!	!	!
.	.	2r	.	.	.	.	.
2G\	-ri-	1d\	glo-	.	.	.	.
=36-	=36-	=36-	=36-	=36-	=36-	=36-	=36-
!LO:TX:t=P:problem:kreska pseudotaktowa	!	!	!	!	!	!	!
1G\	-a	.	.	0ryy	.	0ryy	.
.	.	2d\	-ri-	.	.	.	.
!	!	!LO:TX:t=P:problem:kreska pseudotaktowa	!	!	!	!	!
2F\	tu-	1d\	-a	.	.	.	.
2D\	-a	.	.	.	.	.	.
=37-	=37-	=37-	=37-	=37-	=37-	=37-	=37-
1.F\	glo-	1c\	glo-	0ryy	.	0ryy	.
.	.	2A\	.	.	.	.	.
4E\	.	2.c\	.	.	.	.	.
4D\	.	.	.	.	.	.	.
=38-	=38-	=38-	=38-	=38-	=38-	=38-	=38-
!LO:TX:t=P:problem:kreska pseudotaktowa	!	!	!	!	!	!	!
1E\	.	.	.	0ryy	.	0ryy	.
.	.	4B-\	.	.	.	.	.
.	.	4A/	.	.	.	.	.
.	.	4G/	.	.	.	.	.
2D\	.	2F/	-ri-	.	.	.	.
2.E\	-ri-	2.G/	-a	.	.	.	.
=39-	=39-	=39-	=39-	=39-	=39-	=39-	=39-
.	.	.	.	0ryy	.	0ryy	.
4D/	.	4F/	.	.	.	.	.
4C/	-a	1B-\	tu-	.	.	.	.
4BB-/	.	.	.	.	.	.	.
1C/	tu-	.	.	.	.	.	.
.	.	2A\	.	.	.	.	.
=40-	=40-	=40-	=40-	=40-	=40-	=40-	=40-
!LO:TX:t=P:problem:kreska pseudotaktowa	!	!LO:TX:t=P:problem:kreska pseudotaktowa	!	!	!	!	!
1BB-/	-a	0.B-\	-a	0ryy	.	0ryy	.
2r	.	.	.	.	.	.	.
2.BB-/	glo-	.	.	.	.	.	.
=41-	=41-	=41-	=41-	=41-	=41-	=41-	=41-
.	.	.	glo-	0ryy	.	0ryy	.
4C/	.	.	.	.	.	.	.
4D/	.	.	.	.	.	.	.
4BB-/	.	.	.	.	.	.	.
2C/	.	2r	.	.	.	.	.
2D/	-ri-	2.F/	.	.	.	.	.
=42-	=42-	=42-	=42-	=42-	=42-	=42-	=42-
2BB-/	-a	.	.	0ryy	.	0ryy	.
.	.	4G/	.	.	.	.	.
2F\	glo-	4A/	.	.	.	.	.
!	!	!LO:TX:t=P:problem:kreska pseudotaktowa	!	!	!	!	!
.	.	4F/	.	.	.	.	.
2E\	.	2G/	.	.	.	.	.
2.D/	.	2A\	.	.	.	.	.
=43-	=43-	=43-	=43-	=43-	=43-	=43-	=43-
.	.	2F/	-ri-	0ryy	.	0ryy	.
4C/	.	.	.	.	.	.	.
4BB-/	.	2.B-\	-â	.	.	.	.
!LO:TX:t=P:problem:kreska pseudotaktowa	!	!	!	!	!	!	!
4AA/	.	.	.	.	.	.	.
2GG/	.	.	.	.	.	.	.
.	.	4c\	.	.	.	.	.
2BB-/	.	4d\	.	.	.	.	.
!	!	!LO:TX:t=P:problem:kreska pseudotaktowa	!	!	!	!	!
.	.	4B-\	.	.	.	.	.
=44-	=44-	=44-	=44-	=44-	=44-	=44-	=44-
2AA/	.	2c\	.	0ryy	.	0ryy	.
4GG/	.	2.d\	.	.	.	.	.
4AA/	.	.	.	.	.	.	.
4BB-/	-ri-	.	.	.	.	.	.
4C/	.	4c\	.	.	.	.	.
!LO:TX:t=P:problem:kreska pseudotaktowa	!	!	!	!	!	!	!
2D\	-a	4B-\	.	.	.	.	.
.	.	4A\	.	.	.	.	.
=45-	=45-	=45-	=45-	=45-	=45-	=45-	=45-
4E\	tu-	2G/	.	0ryy	.	0ryy	.
4D\	.	.	.	.	.	.	.
1G\	.	2B-\	tu-	.	.	.	.
.	.	1A\	.	.	.	.	.
!LO:SIC:v:s=2F#	!	!	!	!	!	!	!
2F\	.	.	.	.	.	.	.
=46-	=46-	=46-	=46-	=46-	=46-	=46-	=46-
!	!	!	!	!LO:TX:b:t=Vertat[ur] Osanna	!	!	!
00G\;	-a	00Bn\;	-a	00ryy	.	00ryy	.
!	!	!	!	!LO:PB:g=original	!	!	!
=47||-	=47||-	=47||-	=47||-	=47||-	=47||-	=47||-	=47||-
*clefF4	*	*clefC4	*	*clefC3	*	*clefC1	*
*k[b-]	*	*k[b-]	*	*k[b-]	*	*k[b-]	*
*M2/1	*	*M2/1	*	*M2/1	*	*M2/1	*
0G\	O-	0B-\	O-	0g\	O-	00r	.
=48-	=48-	=48-	=48-	=48-	=48-	=48-	=48-
!	!	!LO:TX:t=P:problem:kreska pseudotaktowa	!	!	!	!	!
0D\	.	0A\	-san-	0f\	.	.	.
=49-	=49-	=49-	=49-	=49-	=49-	=49-	=49-
*lig	*	*	*	*	*	*	*
!	!	!	!	!	!	!LO:TX:t=P:problem:kreska pseudotaktowa	!
1F\	san-	0A\	.	1f\	-san-	0r	.
!	!	!	!	!LO:TX:t=P:problem:kreska pseudotaktowa	!	!	!
1.C/	.	.	.	0.e-X\	-na	.	.
*Xlig	*	*	*	*	*	*	*
=50-	=50-	=50-	=50-	=50-	=50-	=50-	=50-
*	*	*	*	*	*	*lig	*
.	.	0G/	.	.	.	1dd\	O-
2D\	.	.	.	.	.	.	.
!LO:SIC:v:s=2E-	!	!	!	!	!	!	!
2E\	.	.	.	.	.	1cc\	.
2F\	.	.	.	.	.	.	.
*	*	*	*	*	*	*Xlig	*
=51-	=51-	=51-	=51-	=51-	=51-	=51-	=51-
!	!	!	!	!	!	!LO:TX:t=P:problem:kreska pseudotaktowa	!
*	*	*	*	*	*ij	*	*
0G\	.	2.G/	-na	1.d\	O-	0b-\	-san-
.	.	4A\	.	.	.	.	.
.	.	2B-\	.	.	.	.	.
!	!	!LO:TX:t=P:problem:kreska pseudotaktowa	!	!	!	!	!
!	!	!LO:SIC:v:t=custos d	!	!	!	!	!
.	.	2c\	.	2e\	.	.	.
=52-	=52-	=52-	=52-	=52-	=52-	=52-	=52-
*lig	*	*lig	*	*	*	*	*
1D\	.	1d\	.	0f\	-san-	1.a\	-na
1F\	.	1c\	.	.	.	.	.
.	.	.	.	.	.	4g/	.
.	.	.	.	.	.	4f/	.
*	*	*Xlig	*	*	*	*	*
=53-	=53-	=53-	=53-	=53-	=53-	=53-	=53-
*	*	*lig	*	*	*	*	*
1G\	.	1B-\	.	0d\	.	1g\	.
*Xlig	*	*	*	*	*	*	*
!LO:TX:t=P:problem:kreska pseudotaktowa	!	!LO:TX:t=P:problem:kreska pseudotaktowa	!	!	!	!LO:TX:t=P:problem:kreska pseudotaktowa	!
0D\	na	1A\	.	.	.	0a\	.
*	*	*Xlig	*	*	*	*	*
=54-	=54-	=54-	=54-	=54-	=54-	=54-	=54-
.	.	2r	.	0d\	-na	.	.
.	.	1A\	O-	.	.	.	.
!	!	!	!	!	!	!LO:LB:g=original	!
*	*ij	*	*	*	*	*	*
0D\	O-	.	.	.	.	00r	.
.	.	2A\	-san-	.	.	.	.
=55-	=55-	=55-	=55-	=55-	=55-	=55-	=55-
.	.	1B-\	-na	00r	.	.	.
*lig	*	*	*	*	*	*	*
1D\	-san-	2A\	.	.	.	.	.
*	*	*	*ij	*	*	*	*
.	.	1B-\	O-	.	.	.	.
=56-	=56-	=56-	=56-	=56-	=56-	=56-	=56-
1E\	.	.	.	.	.	.	.
.	.	4A/	san-	.	.	.	.
.	.	4G/	.	.	.	.	.
*Xlig	*	*	*	*	*	*	*
!LO:TX:t=P:problem:kreska pseudotaktowa	!	!LO:TX:t=P:problem:kreska pseudotaktowa	!	!	!	!	!
0D\	na	0F/	-na	.	.	2r	.
.	.	.	.	.	.	1a\	O-
=57-	=57-	=57-	=57-	=57-	=57-	=57-	=57-
.	.	.	.	2r	.	.	.
*	*	*	*	*	*Xij	*	*
.	.	.	.	1d\	O-	2a\	-san-
!	!	!	!	!	!	!LO:TX:t=P:problem:kreska pseudotaktowa	!
0r	.	0r	.	.	.	1b-\	.
.	.	.	.	1d\	-ſan-	.	.
=58-	=58-	=58-	=58-	=58-	=58-	=58-	=58-
.	.	.	.	.	.	2a\	-na
!	!	!	!	!LO:TX:t=P:problem:kreska pseudotaktowa	!	!	!
.	.	.	.	0.d\	-na	1b-\	.
1r	.	1r	.	.	.	.	.
.	.	.	.	.	.	4a\	.
.	.	.	.	.	.	4g\	.
*	*Xij	*	*Xij	*	*	*	*
=59-	=59-	=59-	=59-	=59-	=59-	=59-	=59-
0D\	O-	2r	.	.	.	0f/	.
*	*	*	*ij	*	*	*	*
.	.	1A\	O-	.	.	.	.
!	!	!LO:TX:t=P:problem:kreska pseudotaktowa	!	!	!	!	!
.	.	2A\	-san-	2r	.	.	.
=60-	=60-	=60-	=60-	=60-	=60-	=60-	=60-
0D\	-san-	1B-\	.	2F/	in	2r	.
.	.	.	.	1F/	ex-	2.f/	in
.	.	2A\	.	.	.	.	.
.	.	.	.	.	.	4e/	.
*	*	*	*	*lig	*	*	*
.	.	1B-\	.	1G/	-cel-	1d/	ex-
=61-	=61-	=61-	=61-	=61-	=61-	=61-	=61-
1E-X\	.	.	.	.	.	.	.
.	.	4A/	.	1A/	.	2c#X/	-cel-
!	!	!LO:TX:t=P:problem:kreska pseudotaktowa	!	!	!	!	!
.	.	4G/	.	.	.	.	.
*	*	*lig	*	*	*	*	*
!LO:TX:t=P:problem:kreska pseudotaktowa	!	!	!	!	!	!LO:TX:t=P:problem:kreska pseudotaktowa	!
1D\	-na	1F#X/	na	.	.	0d/	-sis
*	*	*	*Xij	*Xlig	*	*	*
.	.	.	.	0B-/	.	.	.
=62-	=62-	=62-	=62-	=62-	=62-	=62-	=62-
2.GG/	in	1G/,	.	.	.	.	.
4AA/	.	.	.	.	.	.	.
*	*	*Xlig	*	*	*	*	*
4BB-/	ex-	2D/	in	.	.	2r	.
4C/	.	.	.	.	.	.	.
2.D/	.	1Fn/	ex-	2A/	.	2d/	in
=63-	=63-	=63-	=63-	=63-	=63-	=63-	=63-
.	.	.	.	2.B-/	.	1f/	ex-
4C/	.	.	.	.	.	.	.
4BB-/	.	4E/	.	.	.	.	.
!	!	!LO:TX:t=P:problem:kreska pseudotaktowa	!	!	!	!	!
4AA/	.	4D/	.	4A/	.	.	.
*	*	*	*	*	*	*lig	*
2GG/	.	2E/	-cel-	1G/	.	1g\	-cel-
2BB-/	-cel-	1D/	.	.	.	.	.
=64-	=64-	=64-	=64-	=64-	=64-	=64-	=64-
!	!	!	!	!LO:TX:t=P:problem:♯ above	!	!	!
1AA/	.	.	.	2F#X/	.	1a\	.
!	!	!LO:TX:t=P:problem:kreska pseudotaktowa	!	!	!	!	!
!	!	!LO:TX:t=P:problem:♯ above	!	!	!	!	!
.	.	2C#X/	.	2G,/	-sis.	.	.
*lig	*	*	*	*	*	*Xlig	*
1GG/	.	2D,/	-sis	1d\	in	0b-\	.
.	.	2G/	in	.	.	.	.
=65-	=65-	=65-	=65-	=65-	=65-	=65-	=65-
!	!	!	!	!LO:TX:t=P:problem:kreska pseudotaktowa	!	!	!
1G\	.	1B-\	.	2e\	ex-	.	.
.	.	.	.	1.f\	-cel-	.	.
*Xlig	*	*	*	*	*	*	*
*lig	*	*lig	*	*	*	*	*
1F\	.	1c\	.	.	.	1.a\	-sis
.	.	.	ex-	.	.	.	.
=66-	=66-	=66-	=66-	=66-	=66-	=66-	=66-
1D\	.	1d\	.	1d\	.	.	.
.	.	.	.	.	.	1b-\	in
*Xlig	*	*Xlig	*	*	*	*	*
0E-X\	.	0G/	.	4c/	.	.	.
.	.	.	.	4B-/	.	.	.
!	!	!	!	!	!	!LO:TX:t=P:problem:kreska pseudotaktowa	!
.	.	.	-cel-	2.cT\	.	2a\	ex-
=67-	=67-	=67-	=67-	=67-	=67-	=67-	=67-
.	.	.	.	.	.	1.g\	-cel-
.	.	.	.	4c\	.	.	.
.	.	.	.	[y00d\;	-sis.	.	.
0D\	.	0A\	.	.	.	.	.
.	.	.	.	.	.	4f#X/	.
.	.	.	.	.	.	4e/	.
=68-	=68-	=68-	=68-	=68-	=68-	=68-	=68-
!	!	!	!	!	!	!LO:TX:t=P:problem:♯ above	!
.	.	.	.	.	.	1f#X/	.
00GG/;	-sis.	00G/;	-sis.	.	.	00g\;	-sis.
.	.	.	.	0d\_yy	.	.	.
.	.	.	.	2dyy\]	.	.	.
!	!	!	!	!LO:LB:g=original	!	!	!
=69||-	=69||-	=69||-	=69||-	=69||-	=69||-	=69||-	=69||-
*	*	*	*	*clefC3	*	*clefC1	*
*	*	*	*	*k[b-]	*	*k[b-]	*
*	*	*	*	*M2/1	*	*M2/1	*
!	!	!LO:TX:a:t=Benedictus Tacet\nOsanna da Capo.	!	!	!	!	!
0ryy	.	0ryy	.	00r	.	0a\	Be-
=70-	=70-	=70-	=70-	=70-	=70-	=70-	=70-
0ryy	.	0ryy	.	.	.	1cc\	-ne-
.	.	.	.	.	.	1dd\	-di-
=71-	=71-	=71-	=71-	=71-	=71-	=71-	=71-
!	!	!	!	!	!	!LO:TX:t=P:problem:kreska pseudotaktowa	!
0ryy	.	0ryy	.	0d\	Be-	1a\	-cy(us)
.	.	.	.	.	.	2r	.
.	.	.	.	.	.	2dd\	qui
=72-	=72-	=72-	=72-	=72-	=72-	=72-	=72-
0ryy	.	0ryy	.	1f\	-ne-	2cc\	.
.	.	.	.	.	.	2.dd\	ve-
.	.	.	.	1g\	-di-	.	.
.	.	.	.	.	.	4cc\	.
.	.	.	.	.	.	4b-\	.
.	.	.	.	.	.	4a\	.
=73-	=73-	=73-	=73-	=73-	=73-	=73-	=73-
!	!	!	!	!LO:TX:t=P:problem:kreska pseudotaktowa	!	!	!
0ryy	.	0ryy	.	1d\	-ctus	2b-\	.
.	.	.	.	.	.	1a\	.
.	.	.	.	2r	.	.	.
.	.	.	.	2d\	qui	4g/	.
!	!	!	!	!	!	!LO:TX:t=P:problem:kreska pseudotaktowa	!
!	!	!	!	!	!	!LO:SIC:v:t=custos e	!
.	.	.	.	.	.	4f/	.
!	!	!	!	!	!	!LO:LB:g=original	!
=74-	=74-	=74-	=74-	=74-	=74-	=74-	=74-
0ryy	.	0ryy	.	2c\	.	2e/	.
.	.	.	.	2.d\	ve-	2d/	.
.	.	.	.	.	.	2f/	.
.	.	.	.	4c/	.	.	.
.	.	.	.	4B-/	.	2g/	.
!	!	!	!	!LO:TX:t=P:problem:kreska pseudotaktowa	!	!	!
.	.	.	.	4A/	.	.	.
=75-	=75-	=75-	=75-	=75-	=75-	=75-	=75-
0ryy	.	0ryy	.	4G/	.	2e/	.
.	.	.	.	4A/	.	.	.
.	.	.	.	4B-/	.	4d/	.
!	!	!	!	!	!	!LO:TX:t=P:problem:kreska pseudotaktowa	!
.	.	.	.	4c/	.	4e/	.
.	.	.	.	4d\	.	4f/	.
.	.	.	.	4e\	.	4g/	.
.	.	.	.	1f\	.	4a/	.
.	.	.	.	.	.	4b-/	.
=76-	=76-	=76-	=76-	=76-	=76-	=76-	=76-
0ryy	.	0ryy	.	.	.	2cc\	.
.	.	.	.	4e\	.	1dd\	.
!	!	!	!	!LO:TX:t=P:problem:kreska pseudotaktowa	!	!	!
.	.	.	.	4d\	.	.	.
.	.	.	.	1e\	.	.	.
.	.	.	.	.	.	2cc\	.
=77-	=77-	=77-	=77-	=77-	=77-	=77-	=77-
0ryy	.	0ryy	.	2d\	.	2.b-\	.
.	.	.	.	2f\	.	.	.
.	.	.	.	.	.	4a\	.
.	.	.	.	2e\	.	2g/	.
.	.	.	.	1d\	.	2f/	.
=78-	=78-	=78-	=78-	=78-	=78-	=78-	=78-
0ryy	.	0ryy	.	.	.	1e/	.
.	.	.	.	2c\	.	.	.
!	!	!	!	!LO:TX:t=P:problem:kreska pseudotaktowa	!	!LO:TX:t=P:problem:kreska pseudotaktowa	!
.	.	.	.	1d\	-nit	0d/	-nit
=79-	=79-	=79-	=79-	=79-	=79-	=79-	=79-
0ryy	.	0ryy	.	2r	.	.	.
.	.	.	.	2G/	in	.	.
.	.	.	.	1.d\	No-	2r	.
.	.	.	.	.	.	2d/	in
=80-	=80-	=80-	=80-	=80-	=80-	=80-	=80-
0ryy	.	0ryy	.	.	.	1.a\	No-
.	.	.	.	2d\	-mi-	.	.
.	.	.	.	2c\	-ne	.	.
.	.	.	.	2.d\	Do-	2a\	-mi-
=81-	=81-	=81-	=81-	=81-	=81-	=81-	=81-
!	!	!	!	!	!	!LO:TX:t=P:problem:kreska pseudotaktowa	!
0ryy	.	0ryy	.	.	.	1b-\	-ne
.	.	.	.	4c\	.	.	.
.	.	.	.	4d\	.	.	.
!	!	!	!	!LO:TX:t=P:problem:kreska pseudotaktowa	!	!	!
.	.	.	.	4e\	.	.	.
.	.	.	.	2f\	.	2a\	.
.	.	.	.	2d\	.	1b-\	Do-
=82-	=82-	=82-	=82-	=82-	=82-	=82-	=82-
0ryy	.	0ryy	.	1e\	.	.	.
.	.	.	.	.	.	4a\	.
.	.	.	.	.	.	4g\	.
.	.	.	.	2d\	.	2b-\	.
.	.	.	.	1g\	.	2b-\	-mi-
=83-	=83-	=83-	=83-	=83-	=83-	=83-	=83-
!	!	!	!	!	!	!LO:TX:t=P:problem:kreska pseudotaktowa	!
0ryy	.	0ryy	.	.	.	1a\	-ni
.	.	.	.	2f\	-mi-	.	.
!	!	!	!	!LO:TX:t=P:problem:kreska pseudotaktowa	!	!	!
.	.	.	.	0g\	-ni	2r	.
.	.	.	.	.	.	2.g\	Do-
=84-	=84-	=84-	=84-	=84-	=84-	=84-	=84-
!	!	!	!	!LO:SIC:v:t= custos d	!	!	!
0ryy	.	0ryy	.	.	.	.	.
.	.	.	.	.	.	4a\	.
.	.	.	.	.	.	4b-\	.
.	.	.	.	.	.	4g\	.
!	!	!	!	!LO:LB:g=original	!	!	!
.	.	.	.	2r	.	4b-\	.
.	.	.	.	.	.	4cc\	.
.	.	.	.	2.d\	Do-	2.dd\	.
=85-	=85-	=85-	=85-	=85-	=85-	=85-	=85-
0ryy	.	0ryy	.	.	.	.	.
.	.	.	.	4e\	.	4cc\	.
.	.	.	.	4f\	.	4b-\	.
!	!	!	!	!LO:TX:t=P:problem:kreska pseudotaktowa	!	!LO:TX:t=P:problem:kreska pseudotaktowa	!
.	.	.	.	4d\	.	4a\	.
.	.	.	.	4e\	.	2.g\	.
.	.	.	.	4f\	.	.	.
.	.	.	.	2.g\	.	.	.
.	.	.	.	.	.	4a\	.
=86-	=86-	=86-	=86-	=86-	=86-	=86-	=86-
0ryy	.	0ryy	.	.	.	2b-\	.
.	.	.	.	4f\	.	.	.
.	.	.	.	4e\	.	2.cc\	.
.	.	.	.	4d\	.	.	.
.	.	.	.	2c\	.	.	.
.	.	.	.	.	.	4b-\	.
.	.	.	.	2.d\	.	4a\	.
.	.	.	.	.	.	4g\	.
=87-	=87-	=87-	=87-	=87-	=87-	=87-	=87-
0ryy	.	0ryy	.	.	.	2f/	.
.	.	.	.	4c/	.	.	.
.	.	.	.	4B-/	.	1b-\	.
.	.	.	.	4A/	.	.	.
.	.	.	.	2G/	.	.	.
.	.	.	.	2d\	.	2.a\	.
=88-	=88-	=88-	=88-	=88-	=88-	=88-	=88-
0ryy	.	0ryy	.	4c/	.	.	.
.	.	.	.	4B-/	.	4g/	.
.	.	.	.	4A/	.	1g\	.
.	.	.	.	4G/	.	.	.
.	.	.	.	2A/	.	.	.
.	.	.	.	2A/	-mi-	2f#X/	-mi-
=89-	=89-	=89-	=89-	=89-	=89-	=89-	=89-
!	!	!	!	!LO:TX:a:t=Osanna\nDa Capo	!	!LO:TX:b:t=Osanna Da Capo.	!
00ryy	.	00ryy	.	00Bn/;	-ni.	00g\;	-ni.
==	==	==	==	==	==	==	==
*-	*-	*-	*-	*-	*-	*-	*-
!!!system-decoration: [(s1,s2,s3,s4)]
!!!EED: Leszek Kubiak
!!!EST: 2021-03-17
!!!ENC: Krzysztof Stępień
!!!END: 2021-03-01
